X: 1
T: Homage \'a la Belle Gasp\`esie
O: from Wild Asperagaus, "From the Floor Up"
R: reel
Z: 2020 John Chambers <jc:trillian.mit.edu> 2020-7-30
S: https://www.facebook.com/groups/Fiddletuneoftheday/
S: https://www.facebook.com/groups/Fiddletuneoftheday/photos/
M: 2/4
L: 1/16
K: A
EA |\
"A"c2cd cBAc | feef e2 EA | c2cd cBAc | "E"eddc d2 Bc |
dcde dcBA | GABc B2 ee | ecef edcB |1 "A"cBcd c2 :|2 "A"Ac"E"B2 "A"A2 ||
|: ce |\
aA=gA fAeA | "A"Acef ecBA | "E"FEBE dEBE | "A"ABcd ecBA |
aA=gA fAeA | "A"Acef ecBA | "E"FEBE dEBE | "A"Ac"E"B2 "A"A2 :|
